X: 46
T: Great Uncle Henry
R: barndance
M: 4/4
L: 1/4
K: Gmaj
|:DGA | "G"B2 BA| "G/F#"c2 BG | "G/E"AB G2|-GGB"G/D"d | 
"C/E"g2 gf |e2 dc |"D/F#" d4-|1 d :|2 dGBd||
 "Em"g3 a |"D"f3 g |"C" e3c d|dB"G"G2| Bc"D"A2 |
AB c2| cB"G"G2|-GG Bd|"Em"g2 a2| "D"f2 g2|"C"e3c| 
dB"G"G2| Bc "D"A2| D3A|cB"G"G2|-G|]
